X: 202
T: A Ghost Of His Former Self
R: reel
M: 4/4
K: Dmajor
B|AF~F2 ~E3F|~F2DE FA~A2|Be~e2 fedB|ABBA d2AD|
EFED ~E3F|~F2DE FA~A2|Be~e2 fedB|AFED ~E3A||
~F3D ~E3F|~F2DE FA~A2|Be~e2 fedB|ABBA d2FD|
EF~F2 ~E3F|~F2DE FA~A2|Be~e2 fedB|AFED ~E3z||
fe~e2 fedB|fede fbaf|fe~e2 fedB|~A3B dABd|
fe~e2 dB~B2|~f3e fa~a2|bf~f2 afed|Bd~d2 de~e2|
fe~e2 fedB|~f3e fbaf|fe~e2 fedB|AB~B2 d2 (3Bcd|
fe~e2 dB~B2|~f3e fa~a2|bf~f2 ~a3b|afed e3||

